icons-dark/apps/48/mail-client.svg

<svg width="48" xmlns="http://www.w3.org/2000/svg" height="48">
 <defs>
  <linearGradient id="a" x1="543.8" x2="503.8" gradientUnits="userSpaceOnUse" gradientTransform="matrix(0 1-1.16667 0-452.67-499.8)">
   <stop stop-color="#197cf1"/>
   <stop offset="1" stop-color="#21c9fb"/>
  </linearGradient>
  <linearGradient id="b" y1="547.8" x1="384.57" y2="530.48" x2="394.57" gradientUnits="userSpaceOnUse">
   <stop stop-color="#ffffff" stop-opacity="0"/>
   <stop offset="1" stop-color="#ffffff" stop-opacity=".314"/>
  </linearGradient>
  <linearGradient id="c" x1="384.57" x2="414.57" gradientUnits="userSpaceOnUse">
   <stop stop-opacity=".275"/>
   <stop offset="1" stop-color="#ffffff" stop-opacity="0"/>
  </linearGradient>
  <linearGradient id="d" y1="547.8" x1="432.57" y2="527.8" x2="421.02" gradientUnits="userSpaceOnUse">
   <stop stop-opacity=".082"/>
   <stop offset="1" stop-opacity="0"/>
  </linearGradient>
  <linearGradient id="e" y1="44" y2="20" x2="0" gradientUnits="userSpaceOnUse">
   <stop stop-color="#eef1f2"/>
   <stop offset="1" stop-color="#f9fafb"/>
  </linearGradient>
  <linearGradient id="f" y1="523.8" y2="507.8" gradientUnits="userSpaceOnUse" x2="0" gradientTransform="translate(0 4)">
   <stop stop-color="#7cbaf8"/>
   <stop offset="1" stop-color="#f4fcff"/>
  </linearGradient>
  <linearGradient id="g" y1="511.8" x1="414.57" y2="519.8" x2="422.57" gradientUnits="userSpaceOnUse">
   <stop stop-color="#292c2f"/>
   <stop offset="1" stop-opacity="0"/>
  </linearGradient>
 </defs>
 <g transform="translate(-384.57-499.8)">
  <g transform="translate(384.57 499.8)">
   <path fill="#c8cfd3" fill-rule="evenodd" d="m24 8l-20 12 20 15 20-15z"/>
   <path fill="url(#a)" d="m10 4v40h28v-32l-8-8z"/>
   <path fill="url(#e)" d="m4 20v24h40v-24l-16 12h-8z"/>
  </g>
  <g fill-rule="evenodd">
   <path fill="url(#c)" d="m388.57 543.8l16-12h8l16 12z"/>
   <path fill="url(#d)" d="m428.57 543.8l-16-12 16-12z"/>
   <path fill="url(#b)" d="m388.57 543.8l16-12-16-12z"/>
  </g>
  <rect width="40" x="388.57" y="542.8" fill="#d1d3d4" height="1"/>
  <path fill="url(#f)" d="m404.57 511.8c-.554 0-1 .446-1 1 0 .554.446 1 1 1 .554 0 1-.446 1-1 0-.554-.446-1-1-1m7 0l-2 2 3 3-3 3 2 2 5-5zm-9.5 6c-.831 0-1.5.669-1.5 1.5 0 .831.669 1.5 1.5 1.5.831 0 1.5-.669 1.5-1.5 0-.831-.669-1.5-1.5-1.5m4.5 6c-1.108 0-2 .892-2 2 0 1.108.892 2 2 2 1.108 0 2-.892 2-2 0-1.108-.892-2-2-2"/>
  <g fill-rule="evenodd">
   <path fill="#313437" d="m422.57 511.8h-8v-8z"/>
   <path opacity=".2" fill="url(#g)" d="m414.57 511.8h8v8z"/>
  </g>
 </g>
</svg>

<?xml version="1.0" encoding="UTF-8" standalone="no"?>

<!-- Created with Inkscape (http://www.inkscape.org/) -->
<svg width="48" version="1.1" xmlns="http://www.w3.org/2000/svg" height="48" xmlns:xlink="http://www.w3.org/1999/xlink" xmlns:inkscape="http://www.inkscape.org/namespaces/inkscape">
 <defs id="defs5455">
  <linearGradient inkscape:collect="always" id="linearGradient4472">
   <stop style="stop-opacity:0.082474" id="stop4474"/>
   <stop offset="1" style="stop-opacity:0" id="stop4476"/>
  </linearGradient>
  <linearGradient inkscape:collect="always" id="linearGradient4456">
   <stop style="stop-opacity:0.27451" id="stop4458"/>
   <stop offset="1" style="stop-color:#ffffff;stop-opacity:0" id="stop4460"/>
  </linearGradient>
  <linearGradient inkscape:collect="always" id="linearGradient4448">
   <stop style="stop-color:#ffffff;stop-opacity:0" id="stop4450"/>
   <stop offset="1" style="stop-color:#ffffff;stop-opacity:0.313726" id="stop4452"/>
  </linearGradient>
  <linearGradient inkscape:collect="always" xlink:href="#linearGradient4303" id="linearGradient4346" x1="543.79797" x2="503.798" gradientUnits="userSpaceOnUse" gradientTransform="matrix(0 1 -1.1666667 0 -452.66668 -499.798)"/>
  <linearGradient inkscape:collect="always" id="linearGradient4903">
   <stop style="stop-color:#eef1f2" id="stop4905"/>
   <stop offset="1" style="stop-color:#f9fafb" id="stop4907"/>
  </linearGradient>
  <linearGradient inkscape:collect="always" xlink:href="#linearGradient4448" id="linearGradient4454" y1="547.79797" x1="384.57144" y2="530.47748" x2="394.57144" gradientUnits="userSpaceOnUse"/>
  <linearGradient inkscape:collect="always" xlink:href="#linearGradient4456" id="linearGradient4462" x1="384.57147" x2="414.57144" gradientUnits="userSpaceOnUse"/>
  <linearGradient inkscape:collect="always" xlink:href="#linearGradient4472" id="linearGradient4478" y1="547.79797" x1="432.57144" y2="527.79797" x2="421.02444" gradientUnits="userSpaceOnUse"/>
  <linearGradient inkscape:collect="always" xlink:href="#linearGradient4903" id="linearGradient4486" y1="43.999973" y2="20" x2="0" gradientUnits="userSpaceOnUse"/>
  <linearGradient inkscape:collect="always" id="linearGradient4290">
   <stop style="stop-color:#7cbaf8" id="stop4292"/>
   <stop offset="1" style="stop-color:#f4fcff" id="stop4294"/>
  </linearGradient>
  <linearGradient inkscape:collect="always" id="linearGradient4303">
   <stop style="stop-color:#197cf1" id="stop4305"/>
   <stop offset="1" style="stop-color:#21c9fb" id="stop4307"/>
  </linearGradient>
  <linearGradient inkscape:collect="always" id="linearGradient4227">
   <stop style="stop-color:#292c2f" id="stop4229"/>
   <stop offset="1" style="stop-opacity:0" id="stop4231"/>
  </linearGradient>
  <linearGradient inkscape:collect="always" xlink:href="#linearGradient4290" id="linearGradient4729" y1="523.79797" y2="507.798" gradientUnits="userSpaceOnUse" x2="0" gradientTransform="matrix(1 0 0 1 0 4)"/>
  <linearGradient inkscape:collect="always" xlink:href="#linearGradient4227" id="linearGradient4755" y1="511.798" x1="414.57144" y2="519.79797" x2="422.57144" gradientUnits="userSpaceOnUse"/>
 </defs>
 <metadata id="metadata5458"/>
 <g inkscape:label="Capa 1" inkscape:groupmode="layer" id="layer1" transform="matrix(1 0 0 1 -384.57143 -499.798)">
  <path style="fill:#c8cfd3;fill-rule:evenodd" id="path4274" d="M 24 8 L 4 20 L 24 35 L 44 20 L 24 8 z " transform="matrix(1 0 0 1 384.57143 499.798)"/>
  <path style="fill:url(#linearGradient4346)" id="rect4261" d="M 10 4 L 10 44 L 38 44 L 38 12 L 30 4 L 10 4 z " transform="matrix(1 0 0 1 384.57143 499.798)"/>
  <path style="fill:url(#linearGradient4486)" id="rect4248" d="M 4 20 L 4 44 L 44 44 L 44 20 L 28 32 L 20 32 L 4 20 z " transform="matrix(1 0 0 1 384.57143 499.798)"/>
  <path inkscape:connector-curvature="0" style="fill:url(#linearGradient4462);fill-rule:evenodd" id="path4334" d="m 388.57147,543.798 15.99996,-12 8,0 16.00001,12 z"/>
  <path inkscape:connector-curvature="0" style="fill:url(#linearGradient4478);fill-rule:evenodd" id="path4336" d="m 428.57144,543.798 -16.00001,-12 16.00001,-12 z"/>
  <path inkscape:connector-curvature="0" style="fill:url(#linearGradient4454);fill-rule:evenodd" id="path4338" d="m 388.57143,543.798 16.00001,-12 -16.00001,-12 z"/>
  <rect width="39.999989" x="388.57144" y="542.79797" height="1" style="fill:#d1d3d4" id="rect4488"/>
  <path inkscape:connector-curvature="0" style="fill:url(#linearGradient4729)" id="path4717" d="m 404.57143,511.798 c -0.554,0 -1,0.446 -1,1 0,0.554 0.446,1 1,1 0.554,0 1,-0.446 1,-1 0,-0.554 -0.446,-1 -1,-1 z m 7,0 -2,2 3,3 -3,3 2,2 3,-3 2,-2 -5,-5 z m -9.5,6 c -0.831,0 -1.5,0.669 -1.5,1.5 0,0.831 0.669,1.5 1.5,1.5 0.831,0 1.5,-0.669 1.5,-1.5 0,-0.831 -0.669,-1.5 -1.5,-1.5 z m 4.5,6 c -1.108,0 -2,0.892 -2,2 0,1.108 0.892,2 2,2 1.108,0 2,-0.892 2,-2 0,-1.108 -0.892,-2 -2,-2 z"/>
  <path inkscape:connector-curvature="0" style="fill:#313437;fill-rule:evenodd" id="path4737" d="m 422.57143,511.798 -8,0 0,-8 z"/>
  <path inkscape:connector-curvature="0" style="fill:url(#linearGradient4755);opacity:0.2;fill-rule:evenodd" id="path4747" d="m 414.57143,511.798 8,0 0,8 z"/>
 </g>
</svg>
